src/images/products/matchmaker-white.svg

<svg width="64" height="64" viewBox="0 0 64 64" fill="none" xmlns="http://www.w3.org/2000/svg">
<path d="M19.4242 41.0938V43H43.6667V28C43.6667 19.7188 37.1515 13 29.1212 13H17.9773C17.4394 13 17 13.4531 17 14.0078C17 14.1641 17.0379 14.3203 17.1061 14.4609L18.2121 16.75L17.7121 17.2656C17.2576 17.7344 17 18.3672 17 19.0312V29.4297C17 30.4531 17.6061 31.375 18.5227 31.75L22.0455 33.2031C22.6894 33.4688 23.4091 33.4375 24.0303 33.1172L24.5303 32.8594C25.1364 32.5469 25.5909 31.9844 25.7803 31.3125L26.4091 29.0547C26.5985 28.3828 27.0455 27.8203 27.6591 27.5078L29.1212 26.75V29.9062C29.1212 31.7969 28.0833 33.5313 26.4394 34.375L22.1061 36.6172C20.4621 37.4687 19.4242 39.1953 19.4242 41.0938ZM22.4545 22.0625C22.4545 22.9219 21.7727 23.625 20.9394 23.625C20.1061 23.625 19.4242 22.9219 19.4242 22.0625C19.4242 21.2031 20.1061 20.5 20.9394 20.5C21.7727 20.5 22.4545 21.2031 22.4545 22.0625ZM43.6667 45.5H19.4242C18.0833 45.5 17 46.6172 17 48C17 49.3828 18.0833 50.5 19.4242 50.5H43.6667C45.0076 50.5 46.0909 49.3828 46.0909 48C46.0909 46.6172 45.0076 45.5 43.6667 45.5Z" fill="white"/>
</svg>

<svg xmlns="http://www.w3.org/2000/svg" fill="none" viewBox="17 13 29.09 37.5"><path fill="#fff" d="M19.424 41.094V43h24.243V28c0-8.281-6.516-15-14.546-15H17.977c-.538 0-.977.453-.977 1.008 0 .156.038.312.106.453l1.106 2.289-.5.516A2.536 2.536 0 0 0 17 19.03V29.43c0 1.023.606 1.945 1.523 2.32l3.523 1.453a2.353 2.353 0 0 0 1.984-.086l.5-.258a2.5 2.5 0 0 0 1.25-1.547l.63-2.257a2.476 2.476 0 0 1 1.25-1.547l1.461-.758v3.156c0 1.89-1.038 3.625-2.682 4.469l-4.333 2.242c-1.644.852-2.682 2.578-2.682 4.477Zm3.03-19.032c0 .86-.681 1.563-1.515 1.563-.833 0-1.515-.703-1.515-1.563 0-.859.682-1.562 1.515-1.562.834 0 1.515.703 1.515 1.563ZM43.668 45.5H19.424C18.084 45.5 17 46.617 17 48s1.083 2.5 2.424 2.5h24.243c1.34 0 2.424-1.117 2.424-2.5s-1.083-2.5-2.424-2.5Z"></path></svg>
